src/icons/cadence.svg

<svg viewBox="0 0 24 24" xmlns="http://www.w3.org/2000/svg">
  <path
    d="M14.633 9.366H18.853V13.586H14.633V9.366ZM10.413 15.172C10.413 16.04 9.695 16.758 8.827 16.758C7.959 16.758 7.241 16.04 7.241 15.172C7.241 14.304 7.96 13.586 8.827 13.586H10.413V9.366H8.827C5.625 9.366 3.022 11.97 3.022 15.172C3.022 18.374 5.625 20.978 8.827 20.978C12.029 20.978 14.633 18.374 14.633 15.172V13.586H10.413V15.172ZM16.22 7.242H20.978V3.022H16.22C14.6805 3.02306 13.2043 3.6351 12.1157 4.72371C11.0271 5.81231 10.4151 7.28848 10.414 8.828L10.413 9.366H14.633L14.634 8.828C14.634 7.96 15.352 7.242 16.22 7.242Z"
    fill="#00E676"
  />
</svg>

<svg viewBox="0 0 24 24" xmlns="http://www.w3.org/2000/svg">
  <path
    class="st1"
    d="M14.633 9.366h4.22v4.22h-4.22zm-4.22 5.806c0 .868-.718 1.586-1.586 1.586s-1.586-.718-1.586-1.586.719-1.586 1.586-1.586h1.586v-4.22H8.827c-3.202 0-5.805 2.604-5.805 5.806s2.603 5.806 5.805 5.806 5.806-2.604 5.806-5.806v-1.586h-4.22zm5.807-7.93h4.758v-4.22H16.22a5.81 5.81 0 0 0-5.806 5.806v.538h4.22v-.538c0-.868.718-1.586 1.586-1.586z"
    fill="#00e676"
    stroke-width="2.56"
  />
</svg>
